X:1
T:Old 23rd, 88.88.88
T:Old 23rd, 88.88.88
T:Divine Musical Miscellany, 1754
T:Public Domain Courtesy of the Cyber Hymnal™
C:Divine Musical Miscellany, 1754
Z:Public Domain
Z:Courtesy of the Cyber Hymnal™
%%score ( 1 2 ) ( 3 4 )
L:1/8
M:3/4
K:G
V:1 treble 
V:2 treble 
V:3 bass 
V:4 bass 
V:1
 D2 | [DG]4 [Dd]2 | [DB]2 [FA]2 G2 | c4 [GB]2 | [GB]2 [FA]2 [FB]2 | B2 A2 [GB]2 | c3 z B (dc) | %7
 [GB]4 [FA]2 | G4 [DB]2 | [EB]2 [CA]2 [B,B]2 | E2 F2 [DG]2 | F2 A2 [CF]2 | E2 ^D2 ([B,E][DF]) | %13
 [EG]2 [FA]2 (BA) | [EG]2 [FA]2 (BA) | [EG]4 [^DF]2 | E4 [DB]2 | [GB]2 [FA]2 [GB]2 | c4 [GB]2 | %19
 (c2 e2) [Gc]2 | [GB]2 [FA]2 [Fd]2 | d2 G2 [Gc]2 | c2 F2 ([DG][EA]) | [DB]4 A2 | [B,G]4 |] %25
V:2
 D2 | x6 | x4 G2 | G2 F2 x2 | x6 | E4 x2 | GF (G2 G2) x | x6 | G4 x2 | x6 | C4 x2 | C4 x2 | %12
 B,4 x2 | x4 F2 | x4 F2 | x6 | E4 x2 | x6 | (G2 A2) x2 | G4 x2 | x6 | G4 x2 | F4 x2 | x4 (DC) | %24
 x4 |] %25
V:3
 F,2 | [B,,G,]4 [F,,F,A,]2 | [G,,G,B,]2 [A,,A,C]2 [B,,B,D]2 | [A,,A,C]4 [G,,G,D]2 | %4
 [D,D]4 [B,,B,]2 | C4 [B,D]2 | [A,C]2 [G,D]2 ([B,,D][C,C]) x | [D,D]4 (DC) | [G,,B,]4 G,2 | %9
 G,2 F,2 [D,F,]2 | [C,G,]4 [B,,G,]2 | A,2 C2 [A,,A,]2 | G,2 F,2 B,2 | [E,B,]4 [^D,B,]2 | %14
 [E,B,]2 [C,C]2 ([G,,E][A,,C]) | [B,,B,]4 [B,,A,]2 | [E,G,]4 G,2 | [D,D]4 [G,D]2 | %18
 ([E,E]2 [F,D]2) [G,D]2 | (E2 C2) [C,E]2 | [D,D]4 [B,,D]2 | [E,B,]4 [A,,A,]2 | [D,A,]4 G,2 | %23
 [D,G,]4 [D,F,]2 | [G,,G,]4 |] %25
V:4
 (D,C,) | x6 | x6 | x6 | x6 | C,2 C2 x2 | x7 | x4 D,2 | x4 G,2 | E,4 x2 | x6 | A,,4 x2 | %12
 B,,4 (G,F,) | x6 | x6 | x6 | x4 G,2 | x6 | x6 | C,4 x2 | x6 | x6 | x4 (B,,C,) | x6 | x4 |] %25

